brandFactory_export/1.Light/Data Alert_1Light.svg

<?xml version="1.0" encoding="UTF-8"?>
<svg width="24px" height="24px" viewBox="0 0 24 24" version="1.1" xmlns="http://www.w3.org/2000/svg" xmlns:xlink="http://www.w3.org/1999/xlink">
    <title>1.Light/Data Alert_1Light</title>
    <g id="Symbols" stroke="none" stroke-width="1" fill="none" fill-rule="evenodd">
        <g id="1.Light/Data-Alert_1Light" fill="#5CB615" fill-rule="nonzero">
            <path d="M7.00168067,13.8554622 C7.00168067,13.5831933 7.22352941,13.3613445 7.49579832,13.3613445 C7.76806723,13.3613445 7.98991597,13.5831933 7.98991597,13.8554622 L7.98991597,18.6218487 C7.98991597,18.8941176 7.76806723,19.1159664 7.49579832,19.1159664 C7.22352941,19.1159664 7.00168067,18.8941176 7.00168067,18.6218487 L7.00168067,13.8554622 Z M7.49915966,19.7042017 C7.76134454,19.7042017 7.97647059,19.9159664 7.97647059,20.1815126 C7.97647059,20.4436975 7.76470588,20.6588235 7.49915966,20.6588235 C7.23697479,20.6588235 7.02184874,20.4436975 7.02184874,20.1815126 C7.02184874,19.9193277 7.23697479,19.7042017 7.49915966,19.7042017 Z M22.6386555,8.97478992 L22.6386555,4.63529412 C22.1445378,5.02857143 21.4655462,5.35462185 20.605042,5.61008403 C19.1663866,6.04369748 17.2840336,6.2789916 15.2907563,6.2789916 C13.297479,6.2789916 11.4151261,6.04369748 9.96638655,5.61008403 C9.09915966,5.34453782 8.42016807,5.01848739 7.91596639,4.62521008 L7.91596639,8.75966387 C7.92605042,8.75966387 7.93613445,8.7697479 7.94621849,8.7697479 C8.13445378,8.85714286 8.28235294,9.00504202 8.3697479,9.19327731 L8.65546218,9.76470588 C8.66554622,9.76470588 8.66554622,9.77478992 8.67563025,9.77478992 C9.09915966,10.0403361 9.63361345,10.2756303 10.2621849,10.4638655 C11.6033613,10.8672269 13.3983193,11.092437 15.2907563,11.092437 C17.1831933,11.092437 18.9747899,10.8672269 20.3193277,10.4638655 C21.6605042,10.0605042 22.389916,9.4487395 22.6386555,8.97478992 L22.6386555,8.97478992 Z M22.6386555,14.8033613 L22.6386555,10.4134454 C22.1176471,10.8168067 21.4252101,11.1630252 20.605042,11.4084034 C19.1663866,11.8420168 17.2840336,12.0773109 15.2907563,12.0773109 C13.297479,12.0773109 11.4151261,11.8420168 9.97647059,11.4084034 C9.77142857,11.3411765 9.5697479,11.2739496 9.36470588,11.2 L12.1042017,16.692437 C13.102521,16.8403361 14.1747899,16.9176471 15.2907563,16.9176471 C17.1831933,16.9176471 18.9781513,16.692437 20.3193277,16.2890756 C21.6605042,15.8857143 22.389916,15.2672269 22.6386555,14.8033613 L22.6386555,14.8033613 Z M22.6386555,20.1478992 L22.6386555,16.2420168 C22.1176471,16.6453782 21.4252101,16.9915966 20.605042,17.2369748 C19.1663866,17.6605042 17.2840336,17.9058824 15.2907563,17.9058824 C14.3731092,17.9058824 13.4857143,17.8588235 12.6386555,17.7478992 L14.897479,22.2857143 C14.9579832,22.3932773 14.9848739,22.5210084 14.9848739,22.6386555 L15.2705882,22.6386555 C17.1630252,22.6386555 18.9478992,22.410084 20.3193277,22.0067227 C21.8588235,21.5462185 22.6386555,20.9176471 22.6386555,20.1478992 Z M1.03529412,22.5714286 L13.9596639,22.6184874 L7.55294118,9.75462185 L1.03529412,22.5714286 Z M10.2453782,1.61344538 C8.95462185,2.00672269 8.17478992,2.52773109 7.97647059,3.12941176 C7.97647059,3.1394958 7.98655462,3.14957983 7.98655462,3.15630252 C8.19159664,3.75798319 8.97142857,4.2789916 10.2521008,4.66218487 C11.6033613,5.07563025 13.3983193,5.2907563 15.2907563,5.2907563 C17.1831933,5.2907563 18.9647059,5.07563025 20.3159664,4.66218487 C21.5697479,4.28907563 22.3462185,3.78487395 22.5714286,3.20672269 C22.5714286,3.18655462 22.5815126,3.18655462 22.5915966,3.17647059 C22.4067227,2.53781513 21.6470588,2.01344538 20.3058824,1.61344538 C18.9579832,1.21008403 17.1731092,0.98487395 15.2705882,0.98487395 C13.3781513,0.98487395 11.5932773,1.21008403 10.2453782,1.61344538 Z M20.5983193,0.668907563 C22.6084034,1.27731092 23.6235294,2.22521008 23.6235294,3.48235294 L23.6235294,20.1478992 C23.6235294,21.4084034 22.6084034,22.3529412 20.5983193,22.9512605 C19.1495798,23.3848739 17.2537815,23.6201681 15.2739496,23.6201681 C15.0756303,23.6201681 14.3966387,23.6201681 14.1983193,23.610084 C14.1680672,23.610084 14.1310924,23.610084 14.1008403,23.6 L14.0705882,23.6 L0.907563025,23.5563025 C0.672268908,23.5563025 0.453781513,23.4689076 0.278991597,23.3008403 C0.100840336,23.1327731 0,22.9008403 0,22.6588235 C0,22.5210084 0.0302521008,22.3630252 0.107563025,22.2252101 L6.73277311,9.18319328 C6.77647059,9.08235294 6.84369748,8.99495798 6.93109244,8.92773109 L6.93109244,3.48235294 C6.93109244,3.27731092 6.96134454,3.08907563 7.00840336,2.90084034 L7.00840336,2.8907563 C7.29411765,1.92605042 8.28235294,1.17647059 9.95630252,0.665546218 C11.3983193,0.235294118 13.2907563,0 15.2705882,0 C17.2638655,0 19.1563025,0.235294118 20.5983193,0.668907563 Z" id="Data-Alert_1Light"></path>
        </g>
    </g>
</svg>

<svg width="24" height="24" viewBox="0 0 24 24" xmlns="http://www.w3.org/2000/svg"><path d="M7.002 13.855a.495.495 0 01.988 0v4.767a.495.495 0 01-.988 0v-4.767zm.497 5.85a.477.477 0 110 .953.477.477 0 010-.954zm15.14-10.73v-4.34c-.494.394-1.173.72-2.034.975-1.439.434-3.321.669-5.314.669-1.994 0-3.876-.235-5.325-.669-.867-.265-1.546-.592-2.05-.985V8.76c.01 0 .02.01.03.01a.865.865 0 01.424.423l.285.572c.01 0 .01.01.02.01.424.265.959.5 1.587.689 1.341.403 3.136.628 5.029.628 1.892 0 3.684-.225 5.028-.628 1.342-.403 2.07-1.015 2.32-1.49zm0 5.828v-4.39c-.521.404-1.214.75-2.034.995-1.439.434-3.321.67-5.314.67-1.994 0-3.876-.236-5.315-.67a21.88 21.88 0 01-.611-.208l2.74 5.492c.998.148 2.07.226 3.186.226 1.892 0 3.687-.226 5.028-.629 1.342-.403 2.07-1.022 2.32-1.486zm0 5.345v-3.906c-.521.403-1.214.75-2.034.995-1.439.424-3.321.669-5.314.669-.918 0-1.805-.047-2.652-.158l2.258 4.538c.061.107.088.235.088.353h.286c1.892 0 3.677-.229 5.048-.632 1.54-.46 2.32-1.09 2.32-1.86zM1.035 22.57l12.925.047L7.553 9.755 1.035 22.57zm9.21-20.958c-1.29.394-2.07.915-2.269 1.516 0 .01.01.02.01.027.206.602.985 1.123 2.266 1.506 1.351.414 3.146.629 5.039.629 1.892 0 3.674-.215 5.025-.629 1.254-.373 2.03-.877 2.255-1.455 0-.02.01-.02.02-.03-.184-.64-.944-1.164-2.285-1.564-1.348-.403-3.133-.628-5.035-.628-1.893 0-3.678.225-5.026.628zM20.598.67c2.01.608 3.026 1.556 3.026 2.813v16.666c0 1.26-1.016 2.205-3.026 2.803-1.448.434-3.344.67-5.324.67-.198 0-.877 0-1.076-.01-.03 0-.067 0-.097-.011h-.03L.908 23.556a.893.893 0 01-.629-.255.9.9 0 01-.171-1.076L6.733 9.183c.043-.1.11-.188.198-.255V3.482c0-.205.03-.393.077-.581v-.01c.286-.965 1.274-1.715 2.948-2.225C11.398.236 13.291 0 15.271 0c1.993 0 3.885.235 5.327.669z" fill="#5CB615" fill-rule="nonzero"/></svg>
